X:1
T:Title
%%score ( 1 2 ) { 3 | 4 }
L:1/8
Q:1/4=77
M:2/4
K:D
V:1 treble nm="Grand Piano, Soprano"
V:2 treble 
V:3 bass nm="Choir Pad, Kramarik, 87.87 D"
V:4 bass 
V:1
 [DF]>[D=F] [D^F][DG] | [FA][GB] [GB][FA] | [EA]>[E^G] [EA][EB] | [Ac][Fd] [Ac][GB] | %4
w: By~Tullius~Clinton~O�Kane,~1890 * * *||||
 [FA]>[GB] [Ac][Fd] | [Ad][^Ac] [Be][Gd] | [Gc][GB] A[Fd] | [Ec][Ge] [Fd]2 | [FA]>[GB] [FA][DF] | %9
w: |||||
 [Dd][GB] [DA][DF] | D>[CE] [DF][CG] | [DA][DB] [CE]2 | [FA]>[GB] [FA][DF] | [Dd][GB] [DA][DF] | %14
w: |||||
 z2 z d | [Fd][Gc] [Fd]2- | [Fd]4 |] %17
w: |||
V:2
 x4 | x4 | x4 | x4 | x4 | x4 | x4 | x4 | x4 | x4 | x4 | x4 | x4 | x4 | [DB]>[DB] [DA]D/E/ | x4 | %16
 x4 |] %17
V:3
 A,>^G, A,A, | D[K:treble]D DD | C>=C ^CD | ED E2 | D>D ED | DE DD | ED D[K:bass]A, | A,A, A,2 | %8
 D>[K:treble]D DA, | B,D D[K:bass]A, | A,>A, A,A, | DB, z/ G,/F,/E,/ | D>D DA, | B,C D[K:bass]A, | %14
 G,>B, DA,/B,/ | A,A, A,2- | A,4 |] %17
V:4
 D,>D, D,D, | D,D, D,D, | A,,>A,, A,,A,, | A,,A,, A,,2 | D,>D, D,D, | F,F, F,F, | G,G, F,D, | %7
 A,,A,, D,2 | D,>D, D,D, | G,G, F,D, | D,>A,, D,E, | F,G,/^G,/ A,2 | D,>D, D,D, | G,G, F,D, | %14
 z z/ G,/ F,F,/G,/ | z A,, D,2- | D,4 |] %17

